X: 35994
T: Saturday Night
R: polka
M: 2/4
K: Gmajor
|:DG Bd|c>B cA|DF Ad|e/d/^c/d/ B2|
DG Bd|c>B cf|ed cF|AG G2:|
|:d2 {c}Bd|Gd Bd|e2 B/c/d/e/|ee ce|
d2 {c}Bd|Gd Bd|e/f/g/e/|d/B/A/c/|BG G2:|

